X: 20561
Q: "Mod.to"
M: C
L: 1/4
K: D
V: 1 clef=treble
|:\
f2dd | e2e2 | dagf | f2e2 |\
d2dd | g>ggf | e2Te2 | d4 :|\
f2ff | e2e2 |
(df)ed | c2e2 |\
f2ff | e2AA | de(f^g) | Ha4 |:\
f2dd | e2e2 | dagf | f2e2 |
d2dd | g>ggf | e2Te2 | d3 :| e |\
f2e2 | f3g | f2Te2 | d2z"_F."e |\
f2Te2 | f3g | f2Te2 | d4 |]
V: 2 clef=treble
|:\
c |\
d2c2 | d3e | d2Tc2 | d2z"_F."c | d2Tc2 | d3e | d2Tc2 | d4 |]



